;generated by ffslicer 2.2.2 05/17/23 15:45:38
;machine_type: Creator 3
;right_extruder_material: PLA
;right_extruder_material_density: 1.24
;filament_diameter0: 1.75
;right_extruder_temperature: 210
;layer_height: 0.18
;perimeter_shells: 3
;top_solid_layers: 4
;bottom_solid_layers: 3
;fill_density: 15%
;fill_pattern: hexagon
;base_print_speed: 60
;travel_speed: 80
;platform_temperature: 60
;right_extruder_temperature_raft0: 0
;right_extruder_temperature_reset: 
;left_extruder_temperature_reset: 
;start gcode
M118 X21.90 Y21.90 Z24.10 T0
M140 S60 T0
M104 S210 T0
M104 S0 T1
M107
G90
G1 Z50.000 F420
M7 T0
M6 T0
M651 S255
;layer_count: 133
M108 T0
G1 X-19.69 Y10.73 F4800
;preExtrude:0.20
G1 Z.200 F420
;structure:pre-extrude
G1 X-19.69 Y10.73 F4800
G1 X-21.90 Y4.11 E.9007 F1200
G1 X-21.90 Y-4.11 E1.9614
G1 X-19.57 Y-11.10 E2.9123
G1 X-11.10 Y-19.57 E4.4581
G1 X-4.11 Y-21.90 E5.4089
G1 X4.11 Y-21.90 E6.4697
G1 X11.10 Y-19.57 E7.4206
G1 X19.57 Y-11.10 E8.9664
G1 X21.90 Y-4.11 E9.9172
G1 X21.90 Y4.11 E10.9780
G1 X19.57 Y11.10 E11.9289
G1 X11.10 Y19.57 E13.4747
G1 X4.11 Y21.90 E14.4255
G1 X-4.11 Y21.90 E15.4863
;raft
;layer:0.27
;support-start
G1 E14.1863 F1800
G1 Z.270 F420
G1 X-1.85 Y16.69 F4200
G1 E15.4863 F1800
;structure:line-support-sparse
;extrude_ratio:1.23711
G1 X-1.85 Y16.69 F4200
G1 X-3.10 Y16.69 E15.5537 F2016
;extrude_ratio:1
G1 E14.2537 F1800
G1 X-7.57 Y14.99 F4200
G1 E15.5537 F1800
;extrude_ratio:1.23711
G1 X-7.57 Y14.99 F4200
G1 X-8.20 Y14.99 E15.5876 F2016
;extrude_ratio:1
G1 E14.2876 F1800
G1 X-14.92 Y7.70 F4200
G1 E15.5876 F1800
;extrude_ratio:1.23711
G1 X-14.92 Y7.70 F4200
G1 X-15.00 Y7.70 E15.5919 F2400
;extrude_ratio:1
G1 E14.2919 F1800
G1 X-16.70 Y3.09 F4200
G1 E15.5919 F1800
;extrude_ratio:1.23711
G1 X-16.70 Y3.09 F4200
G1 X-16.50 Y3.09 E15.6027 F2016
G1 X-16.66 Y2.19 E15.6519
G1 X-16.70 Y1.76 E15.6752
;extrude_ratio:1
G1 E14.3752 F1800
G1 X-16.64 Y-2.30 F4200
G1 E15.6752 F1800
;extrude_ratio:1.23711
G1 X-16.64 Y-2.30 F4200
G1 X-16.70 Y-2.30 E15.6784 F2016
G1 X-16.70 Y-3.09 E15.7210
G1 X-16.50 Y-3.09 E15.7318 F2400
;extrude_ratio:1
G1 E14.4318 F1800
G1 X-14.99 Y-7.57 F4200
G1 E15.7318 F1800
;extrude_ratio:1.23711
G1 X-14.99 Y-7.57 F4200
G1 X-15.00 Y-8.19 E15.7652 F2016
G1 X-14.65 Y-8.19 E15.7841 F2400
;extrude_ratio:1
G1 E14.4841 F1800
G1 X-8.20 Y-14.66 F4200
G1 E15.7841 F1800
;extrude_ratio:1.23711
G1 X-8.20 Y-14.66 F4200
G1 X-8.18 Y-14.66 E15.7851 F2400
;extrude_ratio:1
G1 E14.4851 F1800
G1 X-3.10 Y-16.51 F4200
G1 E15.7851 F1800
;extrude_ratio:1.23711
G1 X-3.10 Y-16.51 F4200
G1 X-3.04 Y-16.51 E15.7884 F2400
;extrude_ratio:1
G1 E14.4884 F1800
G1 X3.04 Y-16.51 F4200
G1 E15.7884 F1800
;extrude_ratio:1.23711
G1 X3.04 Y-16.51 F4200
G1 X3.10 Y-16.51 E15.7916 F2400
;extrude_ratio:1
G1 E14.4916 F1800
G1 X8.18 Y-14.66 F4200
G1 E15.7916 F1800
;extrude_ratio:1.23711
G1 X8.18 Y-14.66 F4200
G1 X8.20 Y-14.66 E15.7927 F2400
;extrude_ratio:1
G1 E14.4927 F1800
G1 X15.00 Y-8.19 F4200
G1 E15.7927 F1800
;extrude_ratio:1.23711
G1 X15.00 Y-8.19 F4200
G1 X14.65 Y-8.19 E15.8115 F2016
G1 X15.00 Y-7.56 E15.8504
;extrude_ratio:1
G1 E14.5504 F1800
G1 X16.70 Y-3.09 F4200
G1 E15.8504 F1800
;extrude_ratio:1.23711
G1 X16.70 Y-3.09 F4200
G1 X16.50 Y-3.09 E15.8611 F2016
G1 X16.64 Y-2.30 E15.9044
G1 X16.70 Y-2.30 E15.9076 F2400
;extrude_ratio:1
G1 E14.6076 F1800
G1 X16.70 Y1.76 F4200
G1 E15.9076 F1800
;extrude_ratio:1.23711
G1 X16.70 Y1.76 F4200
G1 X16.70 Y3.09 E15.9793 F2016
G1 X16.50 Y3.09 E15.9900 F2400
;extrude_ratio:1
G1 E14.6900 F1800
G1 X15.00 Y7.70 F4200
G1 E15.9900 F1800
;extrude_ratio:1.23711
G1 X15.00 Y7.70 F4200
G1 X14.92 Y7.70 E15.9943 F2400
;extrude_ratio:1
G1 E14.6943 F1800
G1 X8.20 Y14.99 F4200
G1 E15.9943 F1800
;extrude_ratio:1.23711
G1 X8.20 Y14.99 F4200
G1 X7.57 Y14.99 E16.0283 F2016
;extrude_ratio:1
G1 E14.7283 F1800
G1 X3.10 Y16.69 F4200
G1 E16.0283 F1800
;extrude_ratio:1.23711
G1 X3.10 Y16.69 F4200
G1 X1.85 Y16.69 E16.0956 F2016
;extrude_ratio:1
G1 E14.7956 F1800
G1 X.30 Y9.27 F4200
G1 E16.0956 F1800
;extrude_ratio:1.23711
G1 X.30 Y9.27 F4200
G1 X-.53 Y9.26 E16.1404 F2016
G1 X-1.13 Y9.21 E16.1728
G1 X-1.40 Y9.17 E16.1875
G1 X-1.40 Y8.20 E16.2398
G1 X-4.33 Y8.20 E16.3977
G1 X-4.80 Y7.93 E16.4269
G1 X-4.80 Y7.70 E16.4393
G1 X-1.17 Y7.70 E16.6348
G1 X4.80 Y7.70 E16.9565 F2117
G1 X4.80 Y6.50 E17.0212
G1 X6.50 Y6.50 E17.1128
G1 X6.50 Y5.70 E17.1559
G1 X-3.50 Y5.70 E17.6947 F2218
G1 X-6.50 Y5.70 E17.8563 F2318
G1 X-6.50 Y4.80 E17.9048
G1 X-7.93 Y4.80 E17.9819
G1 X-8.20 Y4.33 E18.0111
G1 X-8.20 Y3.70 E18.0450
G1 X-4.70 Y3.70 E18.2336
G1 X5.30 Y3.70 E18.7724 F2400
G1 X8.20 Y3.70 E18.9287
G1 X8.20 Y1.70 E19.0365
G1 X-8.20 Y1.70 E19.9201
G1 X-8.20 Y1.40 E19.9363
G1 X-9.17 Y1.40 E19.9885
G1 X-9.25 Y.69 E20.0270
G1 X-9.28 Y.07 E20.0605
G1 X-9.27 Y-.30 E20.0804
G1 X9.27 Y-.30 E21.0794
G1 X9.25 Y-.71 E21.1015
G1 X9.17 Y-1.40 E21.1389
G1 X8.20 Y-1.40 E21.1912
G1 X8.20 Y-2.30 E21.2397
G1 X-8.20 Y-2.30 E22.1233
G1 X-8.20 Y-4.30 E22.2311
G1 X8.20 Y-4.30 E23.1148
G1 X7.93 Y-4.80 E23.1454
G1 X6.50 Y-4.80 E23.2224
G1 X6.50 Y-6.30 E23.3033
G1 X-6.50 Y-6.30 E24.0037
G1 X-6.50 Y-6.50 E24.0145
G1 X-4.80 Y-6.50 E24.1061
G1 X-4.80 Y-7.93 E24.1831
G1 X-4.33 Y-8.20 E24.2123
G1 X-1.40 Y-8.20 E24.3702
G1 X-1.40 Y-8.30 E24.3756
G1 X1.40 Y-8.30 E24.5265
G1 X1.40 Y-9.17 E24.5733
G1 X1.13 Y-9.21 E24.5881
G1 X.28 Y-9.27 E24.6340
G1 X-.30 Y-9.27 E24.6652
;support-end
;extrude_ratio:1
G1 E23.3652 F1800
G1 X10.83 Y-.01 F4200
G1 E24.6652 F1800
;structure:shell-inner
;extrude_ratio:1.18557
G1 X10.83 Y-.01 F4200
G1 X10.80 Y-.81 E24.7066 F2016
G1 X10.73 Y-1.50 E24.7424
G1 X10.60 Y-2.21 E24.7796
G1 X10.44 Y-2.88 E24.8152
G1 X10.22 Y-3.58 E24.8531
G1 X9.97 Y-4.23 E24.8891
G1 X9.67 Y-4.88 E24.9260
G1 X9.33 Y-5.50 E24.9625
G1 X8.96 Y-6.09 E24.9985
G1 X8.54 Y-6.66 E25.0351
G1 X8.08 Y-7.21 E25.0721
G1 X7.59 Y-7.72 E25.1086
G1 X7.06 Y-8.21 E25.1459
G1 X6.52 Y-8.65 E25.1818
G1 X5.93 Y-9.06 E25.2189 F2117
G1 X5.34 Y-9.42 E25.2546
G1 X4.71 Y-9.75 E25.2914
G1 X4.05 Y-10.04 E25.3286
G1 X3.40 Y-10.29 E25.3645
G1 X2.72 Y-10.48 E25.4010
G1 X2.01 Y-10.64 E25.4386
G1 X1.32 Y-10.75 E25.4747
G1 X.62 Y-10.81 E25.5109
G1 X-.09 Y-10.83 E25.5476
G1 X-.81 Y-10.80 E25.5848
G1 X-1.50 Y-10.73 E25.6206
G1 X-2.21 Y-10.60 E25.6579
G1 X-2.88 Y-10.44 E25.6935
G1 X-3.56 Y-10.23 E25.7302 F2218
G1 X-4.24 Y-9.96 E25.7680
G1 X-4.87 Y-9.67 E25.8038
G1 X-5.50 Y-9.33 E25.8408
G1 X-6.09 Y-8.96 E25.8767
G1 X-6.66 Y-8.54 E25.9133
G1 X-7.21 Y-8.08 E25.9503
G1 X-7.73 Y-7.59 E25.9872
G1 X-8.21 Y-7.06 E26.0241
G1 X-8.65 Y-6.51 E26.0605
G1 X-9.05 Y-5.94 E26.0965
G1 X-9.42 Y-5.34 E26.1329
G1 X-9.76 Y-4.70 E26.1703
G1 X-10.04 Y-4.05 E26.2068
G1 X-10.29 Y-3.39 E26.2433 F2318
G1 X-10.48 Y-2.72 E26.2792
G1 X-10.64 Y-2.01 E26.3168
G1 X-10.75 Y-1.31 E26.3534
G1 X-10.81 Y-.62 E26.3892
G1 X-10.83 Y.10 E26.4264
G1 X-10.80 Y.81 E26.4631
G1 X-10.73 Y1.50 E26.4989
G1 X-10.61 Y2.20 E26.5355
G1 X-10.44 Y2.89 E26.5722
G1 X-10.23 Y3.56 E26.6085
G1 X-9.96 Y4.24 E26.6463
G1 X-9.68 Y4.86 E26.6814
G1 X-9.33 Y5.50 E26.7191
G1 X-8.96 Y6.09 E26.7550 F2400
G1 X-8.54 Y6.66 E26.7916
G1 X-8.08 Y7.21 E26.8286
G1 X-7.60 Y7.72 E26.8648
G1 X-7.07 Y8.20 E26.9017
G1 X-6.52 Y8.65 E26.9384
G1 X-5.94 Y9.05 E26.9748
G1 X-5.34 Y9.42 E27.0112
G1 X-4.71 Y9.75 E27.0479
G1 X-4.05 Y10.04 E27.0851
G1 X-3.40 Y10.29 E27.1211
G1 X-2.72 Y10.48 E27.1575
G1 X-2.01 Y10.64 E27.1951
G1 X-1.32 Y10.75 E27.2312
G1 X-.62 Y10.81 E27.2675
G1 X.09 Y10.83 E27.3042
G1 X.81 Y10.80 E27.3414
G1 X1.50 Y10.73 E27.3772
G1 X2.21 Y10.60 E27.4145
G1 X2.89 Y10.44 E27.4505
G1 X3.56 Y10.23 E27.4868
G1 X4.24 Y9.96 E27.5246
G1 X4.87 Y9.67 E27.5604
G1 X5.50 Y9.33 E27.5973
G1 X6.09 Y8.95 E27.6336
G1 X6.66 Y8.54 E27.6698
G1 X7.21 Y8.08 E27.7069
G1 X7.73 Y7.59 E27.7437
G1 X8.21 Y7.06 E27.7807
G1 X8.65 Y6.51 E27.8170
G1 X9.06 Y5.93 E27.8537
G1 X9.42 Y5.34 E27.8894
G1 X9.76 Y4.70 E27.9268
G1 X10.04 Y4.05 E27.9634
G1 X10.29 Y3.39 E27.9998
G1 X10.48 Y2.72 E28.0358
G1 X10.64 Y2.01 E28.0734
G1 X10.75 Y1.31 E28.1099
G1 X10.81 Y.63 E28.1452
G1 X10.83 Y-.01 E28.1783
;extrude_ratio:1
G1 E26.8783 F1800
G1 X10.43 Y-.01 F4200
G1 E28.1783 F1800
;extrude_ratio:1.18557
G1 X10.43 Y-.01 F4200
G1 X10.40 Y-.78 E28.2181 F2400
G1 X10.33 Y-1.44 E28.2523
G1 X10.21 Y-2.13 E28.2885
G1 X10.05 Y-2.78 E28.3231
G1 X9.85 Y-3.44 E28.3587
G1 X9.60 Y-4.08 E28.3941
G1 X9.31 Y-4.70 E28.4295
G1 X8.98 Y-5.30 E28.4648
G1 X8.62 Y-5.86 E28.4992
G1 X8.22 Y-6.42 E28.5348
G1 X7.79 Y-6.94 E28.5696
G1 X7.31 Y-7.44 E28.6054
G1 X6.81 Y-7.90 E28.6405
G1 X6.28 Y-8.33 E28.6757
G1 X5.72 Y-8.72 E28.7110
G1 X5.14 Y-9.07 E28.7459
G1 X4.54 Y-9.39 E28.7810
G1 X3.90 Y-9.67 E28.8171
G1 X3.27 Y-9.91 E28.8519
G1 X2.62 Y-10.10 E28.8869
G1 X1.94 Y-10.25 E28.9229
G1 X1.27 Y-10.35 E28.9578
G1 X.60 Y-10.41 E28.9926
G1 X-.09 Y-10.43 E29.0282
G1 X-.78 Y-10.40 E29.0639
G1 X-1.44 Y-10.33 E29.0981
G1 X-2.12 Y-10.21 E29.1338
G1 X-2.78 Y-10.05 E29.1689
G1 X-3.43 Y-9.85 E29.2040
G1 X-4.08 Y-9.60 E29.2399
G1 X-4.69 Y-9.31 E29.2748
G1 X-5.30 Y-8.98 E29.3106
G1 X-5.86 Y-8.62 E29.3450
G1 X-6.42 Y-8.22 E29.3805
G1 X-6.94 Y-7.79 E29.4154
G1 X-7.44 Y-7.31 E29.4512
G1 X-7.90 Y-6.81 E29.4863
G1 X-8.33 Y-6.27 E29.5219
G1 X-8.72 Y-5.72 E29.5567
G1 X-9.08 Y-5.13 E29.5924
G1 X-9.40 Y-4.53 E29.6275
G1 X-9.67 Y-3.90 E29.6629
G1 X-9.91 Y-3.26 E29.6982
G1 X-10.10 Y-2.62 E29.7327
G1 X-10.25 Y-1.94 E29.7686
G1 X-10.35 Y-1.27 E29.8036
G1 X-10.41 Y-.60 E29.8384
G1 X-10.43 Y.09 E29.8740
G1 X-10.40 Y.78 E29.9097
G1 X-10.33 Y1.45 E29.9444
G1 X-10.21 Y2.12 E29.9796
G1 X-10.05 Y2.78 E30.0147
G1 X-9.85 Y3.43 E30.0498
G1 X-9.60 Y4.08 E30.0857
G1 X-9.32 Y4.69 E30.1204
G1 X-8.98 Y5.30 E30.1565
G1 X-8.62 Y5.86 E30.1908
G1 X-8.22 Y6.42 E30.2264
G1 X-7.79 Y6.94 E30.2612
G1 X-7.31 Y7.43 E30.2966
G1 X-6.81 Y7.90 E30.3321
G1 X-6.28 Y8.33 E30.3673
G1 X-5.72 Y8.72 E30.4025
G1 X-5.13 Y9.08 E30.4382
G1 X-4.54 Y9.39 E30.4726
G1 X-3.90 Y9.67 E30.5087
G1 X-3.27 Y9.91 E30.5435
G1 X-2.62 Y10.10 E30.5785
G1 X-1.94 Y10.25 E30.6145
G1 X-1.27 Y10.35 E30.6494
G1 X-.60 Y10.41 E30.6842
G1 X.09 Y10.43 E30.7198
G1 X.78 Y10.40 E30.7555
G1 X1.45 Y10.33 E30.7903
G1 X2.12 Y10.21 E30.8254
G1 X2.78 Y10.05 E30.8605
G1 X3.43 Y9.85 E30.8956
G1 X4.08 Y9.60 E30.9316
G1 X4.69 Y9.31 E30.9664
G1 X5.30 Y8.98 E31.0022
G1 X5.86 Y8.62 E31.0366
G1 X5.91 Y8.59 E31.0396
G1 X6.42 Y8.22 E31.0722 F2256
G1 X6.94 Y7.78 E31.1073
G1 X7.44 Y7.31 E31.1428
G1 X7.90 Y6.81 E31.1779 F1992
G1 X8.33 Y6.27 E31.2135
G1 X8.69 Y5.75 E31.2462
G1 X8.72 Y5.72 E31.2483 F1728
G1 X9.07 Y5.14 E31.2833
G1 X9.40 Y4.53 E31.3191
G1 X9.63 Y3.99 E31.3494
G1 X9.67 Y3.90 E31.3545 F1464
G1 X9.91 Y3.26 E31.3898
G1 X10.10 Y2.62 E31.4243
G1 X10.22 Y2.08 E31.4529
G1 X10.25 Y1.94 E31.4603 F1200
G1 X10.35 Y1.27 E31.4952
G1 X10.41 Y.60 E31.5300
G1 X10.43 Y.10 E31.5558
;structure:shell-outer
G1 X10.03 Y-.00 E31.5558
G1 X10.00 Y-.74 E31.5941 F1800
G1 X9.93 Y-1.39 E31.6278
G1 X9.82 Y-2.04 E31.6619
G1 X9.67 Y-2.68 E31.6958
G1 X9.47 Y-3.30 E31.7294
G1 X9.23 Y-3.92 E31.7638
G1 X8.96 Y-4.51 E31.7973
G1 X8.64 Y-5.09 E31.8315
G1 X8.29 Y-5.64 E31.8651
G1 X7.90 Y-6.17 E31.8991
G1 X7.48 Y-6.68 E31.9332
G1 X7.03 Y-7.15 E31.9668
G1 X6.55 Y-7.60 E32.0008
G1 X6.04 Y-8.01 E32.0346
G1 X5.50 Y-8.39 E32.0687
G1 X4.94 Y-8.73 E32.1025
G1 X4.36 Y-9.03 E32.1362
G1 X3.76 Y-9.30 E32.1702
G1 X3.14 Y-9.52 E32.2042
G1 X2.51 Y-9.71 E32.2382
G1 X1.87 Y-9.85 E32.2720
G1 X1.22 Y-9.96 E32.3060
G1 X.57 Y-10.01 E32.3397
G1 X-.09 Y-10.03 E32.3738
G1 X-.74 Y-10.00 E32.4074
G1 X-1.39 Y-9.93 E32.4411
G1 X-2.04 Y-9.82 E32.4752
G1 X-2.68 Y-9.67 E32.5091
G1 X-3.30 Y-9.47 E32.5428
G1 X-3.92 Y-9.23 E32.5771
G1 X-4.51 Y-8.96 E32.6106
G1 X-5.09 Y-8.64 E32.6448
G1 X-5.64 Y-8.29 E32.6785
G1 X-6.17 Y-7.90 E32.7124
G1 X-6.68 Y-7.48 E32.7466
G1 X-7.15 Y-7.03 E32.7802
G1 X-7.60 Y-6.55 E32.8141
G1 X-8.01 Y-6.04 E32.8479
G1 X-8.39 Y-5.50 E32.8820
G1 X-8.73 Y-4.94 E32.9158
G1 X-9.03 Y-4.36 E32.9496
G1 X-9.30 Y-3.76 E32.9835
G1 X-9.52 Y-3.14 E33.0175
G1 X-9.71 Y-2.51 E33.0515
G1 X-9.85 Y-1.87 E33.0853
G1 X-9.96 Y-1.22 E33.1193
G1 X-10.01 Y-.57 E33.1530
G1 X-10.03 Y.09 E33.1871
G1 X-10.00 Y.74 E33.2207
G1 X-9.93 Y1.39 E33.2545
G1 X-9.82 Y2.04 E33.2885
G1 X-9.67 Y2.68 E33.3224
G1 X-9.47 Y3.30 E33.3561
G1 X-9.23 Y3.92 E33.3904
G1 X-8.96 Y4.51 E33.4239
G1 X-8.64 Y5.09 E33.4581
G1 X-8.29 Y5.64 E33.4918
G1 X-7.90 Y6.17 E33.5258
G1 X-7.48 Y6.68 E33.5599
G1 X-7.03 Y7.15 E33.5935
G1 X-6.55 Y7.60 E33.6274
G1 X-6.04 Y8.01 E33.6612
G1 X-5.50 Y8.39 E33.6953
G1 X-4.94 Y8.73 E33.7292
G1 X-4.36 Y9.03 E33.7629
G1 X-3.76 Y9.30 E33.7968
G1 X-3.14 Y9.52 E33.8308
G1 X-2.51 Y9.71 E33.8648
G1 X-1.87 Y9.85 E33.8986
G1 X-1.22 Y9.96 E33.9327
G1 X-.57 Y10.01 E33.9663
G1 X.09 Y10.03 E34.0004
G1 X.74 Y10.00 E34.0340
G1 X1.39 Y9.93 E34.0678
G1 X2.04 Y9.82 E34.1018
G1 X2.68 Y9.67 E34.1358
G1 X3.30 Y9.47 E34.1694
G1 X3.92 Y9.23 E34.2037
G1 X4.51 Y8.96 E34.2372
G1 X5.09 Y8.64 E34.2714
G1 X5.64 Y8.29 E34.3051
G1 X6.17 Y7.90 E34.3391
G1 X6.68 Y7.48 E34.3732
G1 X7.15 Y7.03 E34.4068
G1 X7.60 Y6.55 E34.4408
G1 X8.01 Y6.04 E34.4745
G1 X8.39 Y5.50 E34.5086
G1 X8.73 Y4.94 E34.5425
G1 X9.03 Y4.36 E34.5762
G1 X9.30 Y3.76 E34.6102
G1 X9.52 Y3.14 E34.6441
G1 X9.71 Y2.51 E34.6781
G1 X9.85 Y1.87 E34.7119
G1 X9.96 Y1.22 E34.7460
G1 X10.01 Y.57 E34.7796
G1 X10.03 Y.10 E34.8039
G1 X10.43 Y.09 E34.8108 F1200
;extrude_ratio:1
G1 E33.5108 F1800
G1 X15.25 Y-.01 F4200
G1 E34.8108 F1800
;structure:shell-inner
;extrude_ratio:1.18557
G1 X15.25 Y-.01 F4200
G1 X15.22 Y1.02 E34.8640 F2016
G1 X15.12 Y1.97 E34.9133
G1 X14.95 Y2.98 E34.9662
G1 X14.73 Y3.95 E35.0176
G1 X14.44 Y4.91 E35.0694
G1 X14.10 Y5.81 E35.1190
G1 X13.67 Y6.75 E35.1724
G1 X13.21 Y7.61 E35.2228
G1 X12.67 Y8.49 E35.2761
G1 X12.11 Y9.27 E35.3257
G1 X11.47 Y10.05 E35.3778 F2117
G1 X10.78 Y10.78 E35.4296
G1 X10.05 Y11.46 E35.4811
G1 X9.29 Y12.09 E35.5321
G1 X8.48 Y12.68 E35.5839
G1 X7.61 Y13.21 E35.6365
G1 X6.75 Y13.67 E35.6868
G1 X5.81 Y14.10 E35.7402
G1 X4.92 Y14.44 E35.7894
G1 X3.95 Y14.73 E35.8417
G1 X2.98 Y14.95 E35.8930 F2218
G1 X1.97 Y15.12 E35.9459
G1 X1.02 Y15.22 E35.9952
G1 X.00 Y15.25 E36.0479
G1 X-1.02 Y15.22 E36.1006
G1 X-1.97 Y15.12 E36.1499
G1 X-2.98 Y14.95 E36.2028
G1 X-3.95 Y14.73 E36.2542
G1 X-4.92 Y14.44 E36.3065
G1 X-5.81 Y14.10 E36.3557
G1 X-6.75 Y13.67 E36.4090 F2318
G1 X-7.61 Y13.21 E36.4594
G1 X-8.48 Y12.67 E36.5123
G1 X-9.28 Y12.10 E36.5630
G1 X-10.05 Y11.46 E36.6147
G1 X-10.77 Y10.79 E36.6655
G1 X-11.47 Y10.05 E36.7181
G1 X-12.10 Y9.28 E36.7695
G1 X-12.68 Y8.48 E36.8205
G1 X-13.21 Y7.61 E36.8731
G1 X-13.68 Y6.75 E36.9237 F2400
G1 X-14.09 Y5.83 E36.9757
G1 X-14.44 Y4.91 E37.0265
G1 X-14.73 Y3.95 E37.0783
G1 X-14.96 Y2.97 E37.1303
G1 X-15.12 Y1.98 E37.1821
G1 X-15.22 Y1.02 E37.2319
G1 X-15.25 Y.01 E37.2841
G1 X-15.22 Y-1.03 E37.3378
G1 X-15.12 Y-1.98 E37.3871
G1 X-14.96 Y-2.97 E37.4389
G1 X-14.73 Y-3.95 E37.4909
G1 X-14.44 Y-4.91 E37.5427
G1 X-14.09 Y-5.84 E37.5940
G1 X-13.68 Y-6.74 E37.6451
G1 X-13.21 Y-7.62 E37.6966
G1 X-12.68 Y-8.46 E37.7479
G1 X-12.09 Y-9.30 E37.8009
G1 X-11.45 Y-10.06 E37.8522
G1 X-10.78 Y-10.78 E37.9030
G1 X-10.06 Y-11.46 E37.9541
G1 X-9.29 Y-12.09 E38.0055
G1 X-8.46 Y-12.68 E38.0580
G1 X-7.61 Y-13.21 E38.1098
G1 X-6.75 Y-13.68 E38.1604
G1 X-5.83 Y-14.09 E38.2124
G1 X-4.91 Y-14.44 E38.2632
G1 X-3.95 Y-14.73 E38.3150
G1 X-2.97 Y-14.96 E38.3670
G1 X-1.98 Y-15.12 E38.4188
G1 X-1.02 Y-15.22 E38.4686
G1 X.00 Y-15.25 E38.5213
G1 X1.02 Y-15.22 E38.5740
G1 X1.98 Y-15.12 E38.6238
G1 X2.97 Y-14.96 E38.6756
G1 X3.95 Y-14.73 E38.7276
G1 X4.91 Y-14.44 E38.7794
G1 X5.83 Y-14.09 E38.8302
G1 X6.75 Y-13.68 E38.8822
G1 X7.61 Y-13.21 E38.9328
G1 X8.48 Y-12.68 E38.9854
G1 X9.29 Y-12.10 E39.0369
G1 X10.06 Y-11.46 E39.0886
G1 X10.78 Y-10.78 E39.1397
G1 X11.46 Y-10.06 E39.1908
G1 X12.10 Y-9.28 E39.2429
G1 X12.67 Y-8.48 E39.2936
G1 X13.21 Y-7.61 E39.3465
G1 X13.67 Y-6.75 E39.3969
G1 X14.10 Y-5.82 E39.4498
G1 X14.44 Y-4.91 E39.5000
G1 X14.73 Y-3.95 E39.5517
G1 X14.95 Y-2.98 E39.6031
G1 X15.12 Y-1.97 E39.6560
G1 X15.22 Y-1.04 E39.7043
G1 X15.25 Y-.01 E39.7575
;extrude_ratio:1
G1 E38.4575 F1800
G1 X15.65 Y-.01 F4200
G1 E39.7575 F1800
;extrude_ratio:1.18557
G1 X15.65 Y-.01 F4200
G1 X15.62 Y1.04 E39.8117 F2400
G1 X15.52 Y2.04 E39.8636
G1 X15.35 Y3.05 E39.9165
